src/components/ProtocolIcon/arbitrum.svg

<svg width="15" height="16" viewBox="0 0 15 16" fill="none" xmlns="http://www.w3.org/2000/svg">
<path d="M8.93027 7.3311L10.1056 5.33726L13.2735 10.2702L13.275 11.2169L13.2646 4.70244C13.2571 4.54314 13.1725 4.39743 13.0376 4.31149L7.3342 1.03166C7.20086 0.966092 7.03158 0.96688 6.89845 1.03373C6.88043 1.04279 6.86359 1.05253 6.84744 1.06326L6.82755 1.07577L1.29142 4.28313L1.26995 4.29298C1.24228 4.30558 1.21441 4.32182 1.18812 4.34053C1.08315 4.41575 1.01343 4.52709 0.990878 4.65183C0.98753 4.67074 0.98497 4.69003 0.983887 4.70953L0.992552 10.0181L3.94333 5.44575C4.31478 4.83948 5.12424 4.64406 5.87569 4.65479L6.75753 4.67802L1.56134 13.0093L2.17385 13.3619L7.43228 4.68649L9.75656 4.67802L4.51173 13.5724L6.69736 14.8293L6.95852 14.9793C7.069 15.0242 7.19919 15.0265 7.31056 14.9862L13.0942 11.6353L11.9884 12.2759L8.93027 7.3311ZM9.37862 13.7881L7.17112 10.324L8.51874 8.03779L11.4179 12.6064L9.37862 13.7881Z" fill="#2D374B"/>
<path d="M7.17114 10.3241L9.37874 13.788L11.4179 12.6065L8.51876 8.03784L7.17114 10.3241Z" fill="#28A0F0"/>
<path d="M13.2751 11.217L13.2736 10.2703L10.1057 5.3374L8.93042 7.33125L11.9886 12.2761L13.0944 11.6355C13.2028 11.5474 13.2685 11.4182 13.2754 11.2788L13.2751 11.217Z" fill="#28A0F0"/>
<path d="M0 12.1098L1.56151 13.0094L6.7577 4.67806L5.87586 4.65483C5.1245 4.64419 4.31504 4.83952 3.9435 5.44579L0.992719 10.0182L0 11.5431V12.1098V12.1098Z" fill="white"/>
<path d="M9.75679 4.67798L7.4325 4.68645L2.17407 13.3618L4.01209 14.4198L4.51185 13.5723L9.75679 4.67798Z" fill="white"/>
<path d="M14.2545 4.66603C14.2351 4.18007 13.9719 3.73526 13.5597 3.47624L7.78153 0.154077C7.37375 -0.051195 6.86434 -0.0514902 6.45577 0.153979C6.40752 0.178296 0.836637 3.4085 0.836637 3.4085C0.759532 3.44542 0.685282 3.48943 0.615464 3.53944C0.247466 3.80319 0.0231414 4.21295 0 4.66307V11.5432L0.992719 10.0183L0.984053 4.70954C0.985235 4.69015 0.987697 4.67095 0.991045 4.65214C1.0135 4.52721 1.08331 4.41586 1.18829 4.34054C1.21458 4.32184 6.88049 1.0428 6.89851 1.03374C7.03175 0.966896 7.20093 0.966108 7.33426 1.03168L13.0377 4.3115C13.1726 4.39745 13.2572 4.54316 13.2647 4.70245V11.2785C13.2578 11.418 13.2026 11.5472 13.0942 11.6352L11.9885 12.2759L11.4179 12.6065L9.37869 13.788L7.31063 14.9861C7.19925 15.0264 7.06897 15.0241 6.95858 14.9793L4.51179 13.5723L4.01194 14.4197L6.21087 15.6854C6.28354 15.7268 6.34834 15.7634 6.40151 15.7933C6.48384 15.8395 6.53997 15.8703 6.55976 15.88C6.71604 15.9559 6.94086 16 7.14352 16C7.32924 16 7.51043 15.9659 7.68188 15.8988L13.6887 12.421C14.0335 12.1539 14.2363 11.7511 14.2545 11.3149V4.66603Z" fill="#96BEDC"/>
</svg>

<svg xmlns="http://www.w3.org/2000/svg" width="15" height="16" fill="none"><path fill="#2D374B" d="m8.93 7.331 1.176-1.994 3.168 4.933.001.947-.01-6.515a.49.49 0 0 0-.227-.39l-5.704-3.28a.5.5 0 0 0-.487.031l-.02.013-5.536 3.207-.021.01a.489.489 0 0 0-.286.417l.009 5.308 2.95-4.572c.372-.607 1.181-.802 1.933-.791l.882.023-5.197 8.331.613.353 5.258-8.676 2.325-.008-5.245 8.894 2.185 1.257.262.15c.11.045.24.048.352.007l5.783-3.35-1.106.64zm.449 6.457L7.17 10.324 8.52 8.038l2.899 4.568z"/><path fill="#28A0F0" d="m7.171 10.324 2.208 3.464 2.039-1.181-2.9-4.57zM13.275 11.217l-.001-.947-3.168-4.933L8.93 7.331l3.059 4.945 1.105-.64a.5.5 0 0 0 .181-.357z"/><path fill="#fff" d="m0 12.11 1.562.9 5.196-8.332-.882-.023c-.751-.01-1.561.185-1.933.79l-2.95 4.573L0 11.543zM9.757 4.678l-2.324.008-5.259 8.676 1.838 1.058.5-.848z"/><path fill="#96BEDC" d="M14.255 4.666a1.48 1.48 0 0 0-.695-1.19L7.782.154a1.5 1.5 0 0 0-1.326 0C6.408.178.836 3.409.836 3.409A1.47 1.47 0 0 0 0 4.663v6.88l.993-1.525L.984 4.71l.007-.058a.5.5 0 0 1 .197-.311c.027-.02 5.692-3.298 5.71-3.307a.5.5 0 0 1 .436-.002l5.704 3.28c.135.085.22.231.227.39v6.576a.48.48 0 0 1-.17.357l-1.107.64-.57.332-2.04 1.181-2.067 1.198a.5.5 0 0 1-.352-.007l-2.447-1.407-.5.848 2.199 1.265.349.195c.156.076.38.12.584.12q.279 0 .538-.101l6.007-3.478c.345-.267.547-.67.566-1.106z"/></svg>
